src/objects/other-object/26B1.svg

<?xml version="1.0" encoding="UTF-8"?>
<svg id="emoji" xmlns="http://www.w3.org/2000/svg" viewBox="0 0 72 72">
  <g id="grid">
    <path d="m68,4v64H4V4h64m4-4H0v72h72V0Z" fill="#b3b3b3"/>
    <path d="m12.9231,10.9583h46.1539c1.062,0,1.923.861,1.923,1.923h0v46.1539c0,1.0621-.861,1.9231-1.9231,1.9231H12.9231c-1.0621,0-1.9231-.861-1.9231-1.9231h0V12.8814c0-1.0621.861-1.9231,1.9231-1.9231h0Z" fill="none" stroke="#00a5ff" stroke-miterlimit="10" stroke-width=".1"/>
    <rect x="16" y="4" width="40" height="64" rx="2.2537" ry="2.2537" fill="none" stroke="#00a5ff" stroke-miterlimit="10" stroke-width=".1"/>
    <rect x="4" y="16" width="64" height="40" rx="2.2537" ry="2.2537" fill="none" stroke="#00a5ff" stroke-miterlimit="10" stroke-width=".1"/>
    <circle cx="36" cy="36" r="29" fill="none" stroke="#00a5ff" stroke-miterlimit="10" stroke-width=".1"/>
  </g>
  <g id="color">
    <g id="_26B1" data-name=" 26B1">
      <path d="m44.7967,15.1753l3.3621-2.9411c.8792-.7739.9645-2.114.1906-2.9932-.2032-.2308-.4542-.4147-.7355-.5389-3.5708-1.574-7.4353-2.3711-11.3375-2.3387-3.9022-.0324-7.7667.7647-11.3375,2.3387-1.0715.473-1.5568,1.7251-1.0838,2.7966.1242.2813.3081.5323.5389.7355l3.6591,3.2009c-4.8465,3.0433-9.1842,8.3556-9.1842,14.4156,0,10.7391,8.5614,35.7859,8.5614,35.7859h17.1397s8.5611-25.0466,8.5611-35.7859c-.0018-6.0177-3.1671-11.5913-8.3344-14.6754Z" fill="#f4aa41" stroke="#000" stroke-linecap="round" stroke-linejoin="round" stroke-width="2"/>
      <path d="m28.0531,15.4351c5.4513-1.6237,11.2446-1.7136,16.7436-.26" fill="none" stroke="#e27022" stroke-linecap="square" stroke-linejoin="round" stroke-width="2"/>
      <polygon points="40.0997 61.2888 27.043 61.2888 25.7933 57.2166 41.0205 57.2166 40.0997 61.2888" fill="#e27022"/>
      <line x1="19.6448" y1="29.5222" x2="52.3552" y2="29.5222" fill="none" stroke="#e27022" stroke-linecap="round" stroke-linejoin="round" stroke-width="2"/>
      <line x1="19.6448" y1="34.0882" x2="51.821" y2="34.0882" fill="none" stroke="#e27022" stroke-linecap="round" stroke-linejoin="round" stroke-width="2"/>
      <path d="m44.7967,15.1753h-1.1416c0,1.0928,2.6269,8.4364,2.6269,14.6754,0,10.7391-8.5613,35.7859-8.5613,35.7859h6.8493s8.5611-25.0466,8.5611-35.7859c-.0018-6.0177-3.1671-11.5913-8.3344-14.6754Z" fill="#e27022"/>
      <path d="m44.7967,8.1159c2.4548,3.0045.4662,2.303-1.1416,7.0594,3.5167,2.5048,5.2063-4.7835,5.2063-4.7835,0,0-1.875-2.8456-4.0647-2.2759Z" fill="#e27022"/>
    </g>
  </g>
  <g id="line">
    <path id="_26B1-2" data-name=" 26B1-2" d="m44.7967,15.1753l3.3621-2.9411c.8792-.7739.9645-2.114.1906-2.9932-.2032-.2308-.4542-.4147-.7355-.5389-3.5708-1.574-7.4353-2.3711-11.3375-2.3387-3.9022-.0324-7.7667.7647-11.3375,2.3387-1.0715.473-1.5568,1.7251-1.0838,2.7966.1242.2813.3081.5323.5389.7355l3.6591,3.2009c-4.8465,3.0433-9.1842,8.3556-9.1842,14.4156,0,10.7391,8.5614,35.7859,8.5614,35.7859h17.1397s8.5611-25.0466,8.5611-35.7859c-.0018-6.0177-3.1671-11.5913-8.3344-14.6754Z" fill="none" stroke="#000" stroke-linecap="round" stroke-linejoin="round" stroke-width="2"/>
  </g>
</svg>

<svg id="emoji" viewBox="0 0 72 72" xmlns="http://www.w3.org/2000/svg">
  <g id="grid">
    <path fill="#b3b3b3" d="M68,4V68H4V4H68m4-4H0V72H72V0Z"/>
    <path fill="none" stroke="#00a5ff" stroke-miterlimit="10" stroke-width="0.1" d="M12.9231,10.9583H59.077A1.923,1.923,0,0,1,61,12.8813V59.0352a1.9231,1.9231,0,0,1-1.9231,1.9231H12.9231A1.9231,1.9231,0,0,1,11,59.0352V12.8814a1.9231,1.9231,0,0,1,1.9231-1.9231Z"/>
    <rect x="16" y="4" rx="2.2537" width="40" height="64" fill="none" stroke="#00a5ff" stroke-miterlimit="10" stroke-width="0.1"/>
    <rect x="16" y="4" rx="2.2537" width="40" height="64" transform="translate(72 0) rotate(90)" fill="none" stroke="#00a5ff" stroke-miterlimit="10" stroke-width="0.1"/>
    <circle cx="36" cy="36" r="29" fill="none" stroke="#00a5ff" stroke-miterlimit="10" stroke-width="0.1"/>
  </g>
  <g id="color">
    <g id="_26B1">
      <path fill="#f4aa41" stroke="#000" stroke-linecap="round" stroke-linejoin="round" stroke-width="2" d="M44.7967,15.1753l3.3621-2.9411a2.1208,2.1208,0,0,0-.5449-3.5321A27.5414,27.5414,0,0,0,36.2764,6.3634,27.5411,27.5411,0,0,0,24.9389,8.7021a2.1208,2.1208,0,0,0-.5449,3.5321l3.6591,3.2009c-4.8465,3.0433-9.1842,8.3556-9.1842,14.4156,0,10.7391,8.5614,35.7859,8.5614,35.7859H44.57S53.1311,40.59,53.1311,29.8507A17.0965,17.0965,0,0,0,44.7967,15.1753Z"/>
      <path fill="none" stroke="#e27022" stroke-linecap="square" stroke-linejoin="round" stroke-width="2" d="M28.0531,15.4351a30.9477,30.9477,0,0,1,16.7436-.26"/>
      <line x1="25.3523" x2="46.6477" y1="59.2014" y2="59.2014" fill="none" stroke="#e27022" stroke-linejoin="round" stroke-width="4"/>
      <line x1="19.6448" x2="52.3552" y1="29.5222" y2="29.5222" fill="none" stroke="#e27022" stroke-linecap="round" stroke-linejoin="round" stroke-width="2"/>
      <line x1="19.6448" x2="51.821" y1="34.0882" y2="34.0882" fill="none" stroke="#e27022" stroke-linecap="round" stroke-linejoin="round" stroke-width="2"/>
      <path fill="#e27022" d="M44.7967,15.1753H43.6551c0,1.0928,2.6269,8.4364,2.6269,14.6754,0,10.7391-8.5613,35.7859-8.5613,35.7859H44.57S53.1311,40.59,53.1311,29.8507A17.0965,17.0965,0,0,0,44.7967,15.1753Z"/>
      <path fill="#e27022" d="M44.7967,8.1159c2.4548,3.0045.4662,2.303-1.1416,7.0594,3.5167,2.5048,5.2063-4.7835,5.2063-4.7835S46.9864,7.5462,44.7967,8.1159Z"/>
    </g>
  </g>
  <g id="line">
    <path id="_26B1-2" fill="none" stroke="#000" stroke-linecap="round" stroke-linejoin="round" stroke-width="2" d="M44.7967,15.1753l3.3621-2.9411a2.1208,2.1208,0,0,0-.5449-3.5321A27.5414,27.5414,0,0,0,36.2764,6.3634,27.5411,27.5411,0,0,0,24.9389,8.7021a2.1208,2.1208,0,0,0-.5449,3.5321l3.6591,3.2009c-4.8465,3.0433-9.1842,8.3556-9.1842,14.4156,0,10.7391,8.5614,35.7859,8.5614,35.7859H44.57S53.1311,40.59,53.1311,29.8507A17.0965,17.0965,0,0,0,44.7967,15.1753Z"/>
  </g>
</svg>
